svg/Gray/dimension_radius.svg

<svg fill-rule="evenodd" height="112.89mm" preserveAspectRatio="xMidYMid" stroke-linejoin="round" stroke-width="28.222" viewBox="0 0 11289 11289" width="112.89mm" xmlns="http://www.w3.org/2000/svg" xmlns:xlink="http://www.w3.org/1999/xlink"><marker id="a" orient="auto" overflow="visible" refX="0.0" refY="0.0"><path d="m-2.5-1c0 2.76-2.24 5-5 5s-5-2.24-5-5 2.24-5 5-5 5 2.24 5 5z" fill="#0066b3" fill-rule="evenodd" stroke="#0066b3" stroke-width="1pt" transform="matrix(.2 0 0 .2 1.48 .2)"/></marker><marker id="b" orient="auto" overflow="visible" refX="0.0" refY="0.0"><path d="m8.7185878 4.0337352-10.9258773-4.01772194 10.9258779-4.01772106c-1.7454984 2.3720609-1.7354408 5.6174519-.0000006 8.035443z" fill="#0066b3" fill-rule="evenodd" stroke="#0066b3" stroke-linejoin="round" stroke-width=".625" transform="matrix(.3 0 0 .3 -.69 0)"/></marker><path d="m720 816h9799v9801h-9799z" fill="none"/><g stroke="#0066b3"><text style="font-size:2764.07;font-family:Vemana2000;letter-spacing:0;word-spacing:0;fill:#0066b3;stroke-width:0;stroke-linejoin:round" transform="scale(.89186033 1.1212518)" x="9789.9297" y="3067.6279"><tspan fill="#0066b3" font-family="Vemana2000" stroke="#0066b3" stroke-linejoin="round" stroke-width="0" x="9789.9297" y="3067.6279">2</tspan></text><path d="m8202.0833 2477.7629h-1224.8933" fill="none" stroke-linecap="round" stroke-linejoin="miter" stroke-width="396.874998"/><path d="m6977.19 2477.7629-1156.3567 1755.5704" fill="none" stroke-linecap="round" stroke-linejoin="miter" stroke-width="320.188"/><path d="m4101.0416 7011.4583 1719.7917-2778.125" style="fill:none;stroke-width:343.614374;stroke-linecap:round;stroke-linejoin:miter;marker-end:url(#b);marker-start:url(#a)"/><ellipse cx="-2113.5129" cy="7872.9312" rx="3094.0376" ry="3035.8621" style="fill:#0066b3;fill-opacity:.35;fill-rule:nonzero;stroke-width:132.296;stroke-linecap:round;stroke-linejoin:miter;stroke-dashoffset:3.99627" transform="matrix(.7111581 -.70303212 .7111581 .70303212 0 0)"/></g></svg>

<?xml version="1.0" encoding="UTF-8" standalone="no"?>
<svg
   xmlns:dc="http://purl.org/dc/elements/1.1/"
   xmlns:cc="http://creativecommons.org/ns#"
   xmlns:rdf="http://www.w3.org/1999/02/22-rdf-syntax-ns#"
   xmlns:svg="http://www.w3.org/2000/svg"
   xmlns="http://www.w3.org/2000/svg"
   xmlns:sodipodi="http://sodipodi.sourceforge.net/DTD/sodipodi-0.dtd"
   xmlns:inkscape="http://www.inkscape.org/namespaces/inkscape"
   version="1.2"
   width="112.89mm"
   height="112.89mm"
   viewBox="0 0 11289 11289"
   preserveAspectRatio="xMidYMid"
   fill-rule="evenodd"
   stroke-width="28.222"
   stroke-linejoin="round"
   xml:space="preserve"
   id="svg116"
   sodipodi:docname="dimension_radius.svg"
   inkscape:version="1.0.1 (3bc2e813f5, 2020-09-07)"><metadata
   id="metadata120"><rdf:RDF><cc:Work
       rdf:about=""><dc:format>image/svg+xml</dc:format><dc:type
         rdf:resource="http://purl.org/dc/dcmitype/StillImage" /></cc:Work></rdf:RDF></metadata><sodipodi:namedview
   pagecolor="#ffffff"
   bordercolor="#666666"
   borderopacity="1"
   objecttolerance="10"
   gridtolerance="10"
   guidetolerance="10"
   inkscape:pageopacity="0"
   inkscape:pageshadow="2"
   inkscape:window-width="1920"
   inkscape:window-height="1015"
   id="namedview118"
   showgrid="true"
   inkscape:zoom="2.2352311"
   inkscape:cx="212.39055"
   inkscape:cy="216.05669"
   inkscape:window-x="1366"
   inkscape:window-y="37"
   inkscape:window-maximized="1"
   inkscape:current-layer="g108"
   inkscape:snap-text-baseline="true"
   inkscape:document-rotation="0"
   showguides="false"><inkscape:grid
     type="xygrid"
     id="grid1353" /></sodipodi:namedview>
 <defs
   class="ClipPathGroup"
   id="defs8"><marker
     style="overflow:visible"
     id="DotS"
     refX="0.0"
     refY="0.0"
     orient="auto"
     inkscape:stockid="DotS"
     inkscape:isstock="true"><path
       transform="scale(0.2) translate(7.4, 1)"
       style="fill-rule:evenodd;stroke:#0066b3;stroke-width:1pt;stroke-opacity:1;fill:#0066b3;fill-opacity:1"
       d="M -2.5,-1.0 C -2.5,1.7600000 -4.7400000,4.0 -7.5,4.0 C -10.260000,4.0 -12.5,1.7600000 -12.5,-1.0 C -12.5,-3.7600000 -10.260000,-6.0 -7.5,-6.0 C -4.7400000,-6.0 -2.5,-3.7600000 -2.5,-1.0 z "
       id="path1026" /></marker><marker
     style="overflow:visible;"
     id="Arrow2Send"
     refX="0.0"
     refY="0.0"
     orient="auto"
     inkscape:stockid="Arrow2Send"
     inkscape:isstock="true"><path
       transform="scale(0.3) rotate(180) translate(-2.3,0)"
       d="M 8.7185878,4.0337352 L -2.2072895,0.016013256 L 8.7185884,-4.0017078 C 6.9730900,-1.6296469 6.9831476,1.6157441 8.7185878,4.0337352 z "
       style="fill-rule:evenodd;stroke-width:0.625;stroke-linejoin:round;stroke:#0066b3;stroke-opacity:1;fill:#0066b3;fill-opacity:1"
       id="path5199" /></marker><marker
     style="overflow:visible"
     id="Arrow2Sstart"
     refX="0.0"
     refY="0.0"
     orient="auto"
     inkscape:stockid="Arrow2Sstart"
     inkscape:isstock="true"><path
       transform="scale(0.3) translate(-2.3,0)"
       d="M 8.7185878,4.0337352 L -2.2072895,0.016013256 L 8.7185884,-4.0017078 C 6.9730900,-1.6296469 6.9831476,1.6157441 8.7185878,4.0337352 z "
       style="fill-rule:evenodd;stroke-width:0.625;stroke-linejoin:round;stroke:#0066b3;stroke-opacity:1;fill:#0066b3;fill-opacity:1"
       id="path5196" /></marker><marker
     inkscape:stockid="Arrow1Lend"
     orient="auto"
     refY="0.0"
     refX="0.0"
     id="Arrow1Lend"
     style="overflow:visible;"
     inkscape:isstock="true"><path
       id="path842"
       d="M 0.0,0.0 L 5.0,-5.0 L -12.5,0.0 L 5.0,5.0 L 0.0,0.0 z "
       style="fill-rule:evenodd;stroke:#0066b2;stroke-width:1pt;stroke-opacity:0.941176;fill:#0066b2;fill-opacity:0.941176"
       transform="scale(0.8) rotate(180) translate(12.5,0)" /></marker><marker
     inkscape:stockid="Arrow1Lend"
     orient="auto"
     refY="0"
     refX="0"
     id="Arrow1Lend-3"
     style="overflow:visible"
     inkscape:isstock="true"><path
       inkscape:connector-curvature="0"
       id="path842-6"
       d="M 0,0 5,-5 -12.5,0 5,5 Z"
       style="fill:#0066b2;fill-opacity:0.941176;fill-rule:evenodd;stroke:#0066b2;stroke-width:1.00000003pt;stroke-opacity:0.941176"
       transform="matrix(-0.8,0,0,-0.8,-10,0)" /></marker></defs>
 <defs
   class="TextShapeIndex"
   id="defs12" />
 <defs
   class="EmbeddedBulletChars"
   id="defs44" />
 <defs
   class="TextEmbeddedBitmaps"
   id="defs46" />
 <g
   id="g51">
  <g
   id="id2"
   class="Master_Slide">
   <g
   id="bg-id2"
   class="Background" />
   <g
   id="bo-id2"
   class="BackgroundObjects" />
  </g>
 </g>
 <g
   class="SlideGroup"
   id="g114">
  <g
   id="container-id1">
    <g
   class="Page"
   id="g108">
      <g
   class="com.sun.star.drawing.PolyPolygonShape"
   id="g56">
       <g
   id="id3">
        <rect
   class="BoundingBox"
   x="720"
   y="816"
   width="9799"
   height="9801"
   id="rect53"
   style="fill:none;stroke:none" />
       </g>
      </g>
      
      
      
      
      
      
      
      
     

<text
   transform="scale(0.89186033,1.1212518)"
   id="text3261"
   y="3067.6279"
   x="9789.9297"
   style="font-style:normal;font-variant:normal;font-weight:normal;font-stretch:normal;font-size:2764.07px;line-height:1.25;font-family:Vemana2000;-inkscape-font-specification:Vemana2000;letter-spacing:0px;word-spacing:0px;fill:#0066b3;fill-opacity:1;stroke:#0066b3;stroke-width:0;stroke-linejoin:round;stroke-miterlimit:4;stroke-dasharray:none;stroke-opacity:1"
   xml:space="preserve"><tspan
     style="font-style:normal;font-variant:normal;font-weight:normal;font-stretch:normal;font-family:Vemana2000;-inkscape-font-specification:Vemana2000;fill:#0066b3;fill-opacity:1;stroke:#0066b3;stroke-width:0;stroke-linejoin:round;stroke-miterlimit:4;stroke-dasharray:none;stroke-opacity:1"
     y="3067.6279"
     x="9789.9297"
     id="tspan3259"
     sodipodi:role="line">2</tspan></text><path
   inkscape:connector-curvature="0"
   id="path2105"
   d="M 8202.0833,2477.7629 H 6977.19"
   style="fill:none;stroke:#0066b3;stroke-width:396.87499835;stroke-linecap:round;stroke-linejoin:miter;stroke-miterlimit:4;stroke-dasharray:none;stroke-opacity:1"
   sodipodi:nodetypes="cc" /><path
   inkscape:connector-curvature="0"
   id="path2107"
   d="M 6977.19,2477.7629 5820.8333,4233.3333"
   style="fill:none;stroke:#0066b3;stroke-width:320.188;stroke-linecap:round;stroke-linejoin:miter;stroke-miterlimit:4;stroke-dasharray:none;stroke-opacity:1"
   sodipodi:nodetypes="cc" /><path
   inkscape:connector-curvature="0"
   id="path2109"
   d="M 4101.0416,7011.4583 5820.8333,4233.3333"
   style="fill:none;stroke:#0066b3;stroke-width:343.61437357;stroke-linecap:round;stroke-linejoin:miter;stroke-miterlimit:4;stroke-dasharray:none;stroke-opacity:1;marker-end:url(#Arrow2Sstart);marker-start:url(#DotS)"
   sodipodi:nodetypes="cc" /><ellipse
   id="circle6020"
   style="opacity:1;fill:#0066b3;fill-opacity:0.35;fill-rule:nonzero;stroke:#0066b3;stroke-width:132.296;stroke-linecap:round;stroke-linejoin:miter;stroke-miterlimit:4;stroke-dasharray:none;stroke-dashoffset:3.99627;stroke-opacity:1"
   transform="matrix(0.7111581,-0.70303212,0.7111581,0.70303212,0,0)"
   ry="3035.8621"
   rx="3094.0376"
   cy="7872.9312"
   cx="-2113.5129" /></g>
   </g>
 </g>
</svg>
